X: 1
T: Folding Down the Sheets
O:Old-time Appalachian
S:http://www.ibiblio.org/fiddlers/FOCH_FORG.htm
N:A somewhat-similar tune appears under the title "Republican Spirit" in George P. Knauff's Virginia Reels, V.1 (1839)
N:There are many variants of this tune, some quite incompatible.  This is a very basic version.
M:2/4
L:1/16
K:D
|: af | edcB ABc2 | dBAF D2EF | G4 F4 | EDE2 A2 :| z2 |
|: edef gfgf | Ace2 a4 | A2a2A2g2 |1 edef e4 :|2 ede2d2 |]

%%sep 1 1 500

